icons/log-24.svg

<svg xmlns="http://www.w3.org/2000/svg" width="24" height="24" viewBox="0 0 24 24"><path d="M9.197 10a.75.75 0 000 1.5h6.5a.75.75 0 000-1.5h-6.5zm-2.382 4a.75.75 0 000 1.5h6.5a.75.75 0 000-1.5h-6.5zm-1.581 4a.75.75 0 000 1.5h6.5a.75.75 0 000-1.5h-6.5z"/><path d="M4.125 0h15.75a4.11 4.11 0 012.92 1.205A4.11 4.11 0 0124 4.125c0 1.384-.476 2.794-1.128 4.16-.652 1.365-1.515 2.757-2.352 4.104l-.008.013c-.849 1.368-1.669 2.691-2.28 3.97-.614 1.283-.982 2.45-.982 3.503a2.625 2.625 0 104.083-2.183.75.75 0 11.834-1.247A4.126 4.126 0 0119.875 24H4.5a4.125 4.125 0 01-4.125-4.125c0-2.234 1.258-4.656 2.59-6.902.348-.586.702-1.162 1.05-1.728.8-1.304 1.567-2.553 2.144-3.738H3.39c-.823 0-1.886-.193-2.567-1.035A3.647 3.647 0 010 4.125 4.125 4.125 0 014.125 0zM15.75 19.875c0-1.38.476-2.786 1.128-4.15.649-1.358 1.509-2.743 2.343-4.086l.017-.028c.849-1.367 1.669-2.692 2.28-3.972.614-1.285.982-2.457.982-3.514A2.615 2.615 0 0019.875 1.5a2.625 2.625 0 00-2.625 2.625c0 .865.421 1.509 1.167 2.009A.75.75 0 0118 7.507H7.812c-.65 1.483-1.624 3.069-2.577 4.619-.334.544-.666 1.083-.98 1.612-1.355 2.287-2.38 4.371-2.38 6.137A2.625 2.625 0 004.5 22.5h12.193a4.108 4.108 0 01-.943-2.625zM1.5 4.125c-.01.511.163 1.008.487 1.403.254.313.74.479 1.402.479h12.86a3.648 3.648 0 01-.499-1.882 4.11 4.11 0 01.943-2.625H4.125A2.625 2.625 0 001.5 4.125z"/></svg>

<svg xmlns="http://www.w3.org/2000/svg" width="24" height="24" viewBox="0 0 24 24">
  <defs/>
  <path d="M9.197,10 A0.75 0.75 0 0 0 9.197,11.5 L15.697,11.5 A0.75 0.75 0 0 0 15.697,10 L9.197,10 Z M6.815,14 A0.75 0.75 0 0 0 6.815,15.5 L13.315,15.5 A0.75 0.75 0 0 0 13.315,14 L6.815,14 Z M5.234,18 A0.75 0.75 0 0 0 5.234,19.5 L11.734,19.5 A0.75 0.75 0 0 0 11.734,18 L5.234,18 Z"/>
  <path d="M4.125,0 L19.875,0 C20.97,-0.003 22.021,0.43 22.795,1.205 C23.57,1.979 24.003,3.03 24,4.125 C24,5.509 23.524,6.919 22.872,8.285 C22.22,9.65 21.357,11.042 20.52,12.389 L20.512,12.402 C19.663,13.77 18.843,15.093 18.232,16.372 C17.618,17.655 17.25,18.822 17.25,19.875 C17.25,21.127 18.135,22.205 19.363,22.449 C20.591,22.694 21.821,22.036 22.3,20.879 C22.779,19.722 22.374,18.388 21.333,17.692 C20.989,17.462 20.896,16.996 21.126,16.652 C21.357,16.307 21.823,16.215 22.167,16.445 C23.678,17.454 24.35,19.334 23.823,21.073 C23.295,22.811 21.692,24 19.875,24 L4.5,24 C2.222,24 0.375,22.153 0.375,19.875 C0.375,17.641 1.633,15.219 2.965,12.973 C3.313,12.387 3.667,11.811 4.015,11.245 C4.815,9.941 5.582,8.692 6.159,7.507 L3.39,7.507 C2.567,7.507 1.504,7.314 0.823,6.472 C0.282,5.81 -0.009,4.98 0,4.125 C0,1.847 1.847,0 4.125,0 Z M15.75,19.875 C15.75,18.495 16.226,17.089 16.878,15.725 C17.527,14.367 18.387,12.982 19.221,11.639 L19.238,11.611 C20.087,10.244 20.907,8.919 21.518,7.639 C22.132,6.354 22.5,5.182 22.5,4.125 C22.503,3.428 22.228,2.758 21.735,2.265 C21.242,1.772 20.572,1.497 19.875,1.5 C18.425,1.5 17.25,2.675 17.25,4.125 C17.25,4.99 17.671,5.634 18.417,6.134 C18.691,6.318 18.813,6.659 18.717,6.975 C18.621,7.291 18.33,7.507 18,7.507 L7.812,7.507 C7.162,8.99 6.188,10.576 5.235,12.126 C4.901,12.67 4.569,13.209 4.255,13.738 C2.9,16.025 1.875,18.109 1.875,19.875 C1.875,21.325 3.05,22.5 4.5,22.5 L16.693,22.5 C16.104,21.787 15.75,20.872 15.75,19.875 Z M1.5,4.125 C1.49,4.636 1.663,5.133 1.987,5.528 C2.241,5.841 2.727,6.007 3.389,6.007 L16.249,6.007 C15.935,5.474 15.75,4.848 15.75,4.125 C15.749,3.167 16.082,2.238 16.693,1.5 L4.125,1.5 C2.675,1.5 1.5,2.675 1.5,4.125 Z"/>
</svg>
